X:614
T:Reel Beatrice
S:Colin Hume's website,  colinhume.com  - chords can also be printed below the stave.
Q:1/2=120
%%MIDI chordname dim 0 3 6 9
M:4/4
L:1/8
K:Am
%%MIDI program 41
P:A
[| A,B, |: "Am"C2 A,C EA,CE | "Am"AEEC E2 AB | "Am"ccAc eAce | "Am"ae (3eee aeab |
| "F"c'bag fedc | "Dm"Bdd^c d4 | "E"e^def e=dcB |1 "Am"A3 A,A,3 B, :|2 "Am"A3 A,A,3 a |
P:B
|: "Dm"a2 fa "G7"bf (3fff | "C"fe^de "Fmaj7"ae (3eee | "Bdim"e^def "E7"e=ddB | "Am"cdcB "A7"A2 a2 |
| "Dm"aafa "G7"bf (3fff | "C"fe^de "Fmaj7"ae (3eee | "Bdim"e^def "E7"e=dcB |1 "Am"A3 A,A,3 a :|2 "A7"A2 AB "G"A2 GB |
P:C
|: "C"cG (3GGG EGce | "C"cG (3GGG EGce | "G"dB (3BBB GBdB | "C"cc'ba "G"gfed |
| "C"cG (3GGG EGce | "C"cG (3GGG EGce | "G"dB (3BBB GBdB |1 "C"cBcd c2 GB :|2 "C"cBcd c2 A,B, |]

